web/assets/img/functions/530_7.svg

<svg id="vector" xmlns="http://www.w3.org/2000/svg" width="512" height="512" viewBox="0 0 512 512">
    <path fill="#000000"
          d="M401,131.5H210V95.5C210,92.85 208.95,90.3 207.07,88.43C205.2,86.55 202.65,85.5 200,85.5H128C125.35,85.5 122.8,86.55 120.93,88.43C119.05,90.3 118,92.85 118,95.5V131.5H111C81.84,131.53 53.88,143.13 33.26,163.76C12.63,184.38 1.03,212.34 1,241.5V287.5C1.03,316.66 12.63,344.63 33.25,365.25C53.88,385.87 81.84,397.47 111,397.5H118V416.5C118,419.15 119.05,421.7 120.93,423.57C122.8,425.45 125.35,426.5 128,426.5H200C202.65,426.5 205.2,425.45 207.07,423.57C208.95,421.7 210,419.15 210,416.5V397.5H302V416.5C302,419.15 303.05,421.7 304.93,423.57C306.8,425.45 309.35,426.5 312,426.5H384C386.65,426.5 389.2,425.45 391.07,423.57C392.95,421.7 394,419.15 394,416.5V397.5H401C430.16,397.47 458.13,385.87 478.75,365.25C499.37,344.63 510.97,316.66 511,287.5V241.5C510.97,212.34 499.36,184.38 478.74,163.76C458.12,143.13 430.16,131.53 401,131.5ZM118,377.5H111C87.14,377.47 64.26,367.98 47.39,351.11C30.52,334.24 21.03,311.36 21,287.5V241.5C21.03,217.64 30.52,194.76 47.39,177.89C64.26,161.02 87.14,151.53 111,151.5H118V377.5ZM138,105.5H190V131.5H138V105.5ZM190,406.5H138V397.5H190V406.5ZM138,377.5V151.5H373V377.5H138ZM374,406.5H322V397.5H374V406.5ZM491,287.5C490.97,311.36 481.48,334.24 464.61,351.11C447.74,367.98 424.86,377.47 401,377.5H393V151.5H401C424.86,151.53 447.74,161.02 464.61,177.89C481.48,194.76 490.97,217.64 491,241.5V287.5Z"
          id="path_0"/>
    <path fill="#00D151"
          d="M256,310C244.86,310 234.18,305.57 226.3,297.7C218.43,289.82 214,279.14 214,268C214,240.65 245.35,208.51 248.93,204.93C250.8,203.05 253.35,202 256,202C258.65,202 261.2,203.05 263.07,204.93C266.65,208.51 298,240.65 298,268C298,279.14 293.58,289.82 285.7,297.7C277.82,305.57 267.14,310 256,310ZM256,226.79C245.61,238.99 234,256.37 234,268C234,273.83 236.32,279.43 240.44,283.55C244.57,287.68 250.16,290 256,290C261.83,290 267.43,287.68 271.56,283.55C275.68,279.43 278,273.83 278,268C278,256.37 266.39,238.99 256,226.79Z"
          id="path_1"/>
</svg>

<?xml version="1.0" encoding="utf-8"?>
<!-- Generator: Adobe Illustrator 28.2.0, SVG Export Plug-In . SVG Version: 6.00 Build 0)  -->
<svg version="1.1" id="vector" xmlns="http://www.w3.org/2000/svg" xmlns:xlink="http://www.w3.org/1999/xlink" x="0px" y="0px"
	 viewBox="0 0 512 512" style="enable-background:new 0 0 512 512;" xml:space="preserve">
<style type="text/css">
	.st0{fill:#33B0DF;}
</style>
<path id="path_0" d="M401,131.5H210v-36c0-2.7-1.1-5.2-2.9-7.1c-1.9-1.9-4.4-2.9-7.1-2.9h-72c-2.7,0-5.2,1.1-7.1,2.9
	c-1.9,1.9-2.9,4.4-2.9,7.1v36h-7c-29.2,0-57.1,11.6-77.7,32.3C12.6,184.4,1,212.3,1,241.5v46c0,29.2,11.6,57.1,32.2,77.8
	c20.6,20.6,48.6,32.2,77.8,32.2h7v19c0,2.6,1.1,5.2,2.9,7.1c1.9,1.9,4.4,2.9,7.1,2.9h72c2.6,0,5.2-1,7.1-2.9
	c1.9-1.9,2.9-4.4,2.9-7.1v-19h92v19c0,2.6,1,5.2,2.9,7.1c1.9,1.9,4.4,2.9,7.1,2.9h72c2.6,0,5.2-1,7.1-2.9c1.9-1.9,2.9-4.4,2.9-7.1
	v-19h7c29.2,0,57.1-11.6,77.8-32.2s32.2-48.6,32.2-77.8v-46c0-29.2-11.6-57.1-32.3-77.7C458.1,143.1,430.2,131.5,401,131.5z
	 M118,377.5h-7c-23.9,0-46.7-9.5-63.6-26.4C30.5,334.2,21,311.4,21,287.5v-46c0-23.9,9.5-46.7,26.4-63.6s39.8-26.4,63.6-26.4h7
	V377.5z M138,105.5h52v26h-52V105.5z M190,406.5h-52v-9h52V406.5z M138,377.5v-226h235v226H138z M374,406.5h-52v-9h52V406.5z
	 M491,287.5c0,23.9-9.5,46.7-26.4,63.6c-16.9,16.9-39.8,26.4-63.6,26.4h-8v-226h8c23.9,0,46.7,9.5,63.6,26.4
	c16.9,16.9,26.4,39.8,26.4,63.6V287.5z"/>
<path id="path_1" class="st0" d="M256,310c-11.1,0-21.8-4.4-29.7-12.3c-7.9-7.9-12.3-18.6-12.3-29.7c0-27.4,31.4-59.5,34.9-63.1
	c1.9-1.9,4.4-2.9,7.1-2.9s5.2,1.1,7.1,2.9c3.6,3.6,34.9,35.7,34.9,63.1c0,11.1-4.4,21.8-12.3,29.7C277.8,305.6,267.1,310,256,310z
	 M256,226.8c-10.4,12.2-22,29.6-22,41.2c0,5.8,2.3,11.4,6.4,15.5c4.1,4.1,9.7,6.5,15.6,6.5c5.8,0,11.4-2.3,15.6-6.5
	c4.1-4.1,6.4-9.7,6.4-15.5C278,256.4,266.4,239,256,226.8z"/>
</svg>
